packages/icons/svg/24/LockUnlock.svg

<svg width="24" height="24" viewBox="0 0 24 24" fill="none" xmlns="http://www.w3.org/2000/svg">
<path fill-rule="evenodd" clip-rule="evenodd" d="M15 11V6C15 4.34315 13.6569 3 12 3C10.3431 3 9 4.34315 9 6V8H6V6C6 2.68629 8.68629 0 12 0C15.3137 0 18 2.68629 18 6V11C19.1046 11 20 11.8954 20 13V19C20 20.1046 19.1046 21 18 21H6C4.89543 21 4 20.1046 4 19V13C4 11.8954 4.89543 11 6 11H15Z" fill="#858585"/>
</svg>

<svg width="24" height="24" fill="none" xmlns="http://www.w3.org/2000/svg" viewBox="0 0 24 24"><path fill-rule="evenodd" clip-rule="evenodd" d="M15 11V6a3 3 0 10-6 0v2H6V6a6 6 0 1112 0v5a2 2 0 012 2v6a2 2 0 01-2 2H6a2 2 0 01-2-2v-6a2 2 0 012-2h9z" fill="currentColor"></path></svg>
